X:1
T:Gitane
R:valse
O:France
M:3/4
L:1/4
Q:1/4=120
K:G
|:"G"dBd|GBd|"D7"gfe|"G"dBd|"D7"cAc|"D7"fed|[1cBc|"G"d3:|2cBA|"G"G3|
|:"G"dB/d/B/d/|"D7"gfe|"G"dB/d/B/d/|"D7"gfe|cA/c/A/c/|fed|[1cBc|"G"d3:|2"D7"cBA|"G"G3|]
